; generated by PrusaSlicer 2.9.2 on 2025-07-14 at 18:24:33 UTC


;
;
; 

; external perimeters extrusion width = 0.60mm
; perimeters extrusion width = 0.50mm
; infill extrusion width = 0.50mm
; solid infill extrusion width = 0.50mm
; top infill extrusion width = 0.45mm
; support material extrusion width = 0.38mm
; first layer extrusion width = 0.42mm

M73 P0 R12
M73 Q0 S12
M201 X1000 Y1000 Z200 E5000 ; sets maximum accelerations, mm/sec^2
M203 X200 Y200 Z12 E120 ; sets maximum feedrates, mm / sec
M204 S1250 T1250 ; sets acceleration (S) and retract acceleration (R), mm/sec^2
M205 X8.00 Y8.00 Z0.40 E4.50 ; sets the jerk limits, mm/sec
M205 S0 T0 ; sets the minimum extruding and travel feed rate, mm/sec

; printing object Fan v3.stl id:0 copy 0
; stop printing object Fan v3.stl id:0 copy 0

;TYPE:Custom
M862.3 P "MK3S" ; printer model check
M862.1 P0.4 ; nozzle diameter check
M115 U3.14.1 ; tell printer latest fw version
G90 ; use absolute coordinates
M83 ; extruder relative mode
M104 S215 ; set extruder temp
M140 S60 ; set bed temp
M190 S60 ; wait for bed temp
M109 S215 ; wait for extruder temp
G28 W ; home all without mesh bed level
G80 X115.894 Y91.9092 W38.437 H38.437 ; mesh bed levelling

G1 Z0.2 F720
G1 Y-3 F1000 ; go outside print area
G92 E0
G1 X60 E9 F1000 ; intro line
G1 X100 E12.5 F1000 ; intro line

G92 E0
M221 S95

; Don't change E values below. Excessive value can damage the printer.

M907 E538 ; set extruder motor current
G21 ; set units to millimeters
G90 ; use absolute coordinates
M83 ; use relative distances for extrusion

M900 K0.05 ; Filament gcode LA 1.5
M900 K30 ; Filament gcode LA 1.0




M107
;LAYER_CHANGE
;Z:0.2
;HEIGHT:0.2
G1 E-.8 F2100
G1 Z.6 F720
G1 X116.724 Y97.37 F10800
G1 Z.2 F720
G1 E.8 F2100
M204 S800
;TYPE:Skirt/Brim
;WIDTH:0.42
G1 F1200
G1 X119.039 Y95.054 E.10267
G1 X120.158 Y94.456 E.03978
M73 Q1 S12
G1 X131.736 Y92.14 E.37021
G1 X149.639 Y92.098 E.56134
M73 P1 R12
G1 X151.186 Y92.739 E.0525
G1 X153.502 Y95.054 E.10267
G1 X154.143 Y96.602 E.05253
G1 X154.143 Y114.075 E.54785
G1 X151.785 Y126.083 E.38369
G1 X151.186 Y127.201 E.03977
G1 X148.87 Y129.517 E.1027
G1 X147.323 Y130.158 E.0525
G1 X127.534 Y130.158 E.62047
G1 X125.986 Y129.517 E.05253
G1 X116.724 Y120.254 E.41071
G1 X116.083 Y118.707 E.0525
G1 X116.083 Y98.918 E.62047
G1 X116.701 Y97.425 E.05066
M204 S1000
;WIPE_START
G1 F8640
G1 X116.724 Y97.37 E-.01377
G1 X119.039 Y95.054 E-.75612
G1 X119.154 Y94.993 E-.03011
;WIPE_END
G1 Z.6 F720
; printing object Fan v3.stl id:0 copy 0
G1 X149.639 Y96.602 F10800
G1 Z.2 F720
G1 E.8 F2100
M204 S800
;TYPE:Support material
G1 F1200
G1 X151.954 Y96.602 E.07259
G1 X151.954 Y114.075 E.54785
G1 X149.639 Y114.075 E.07259
M73 P2 R12
M73 Q2 S12
G1 X149.639 Y125.654 E.36305
G1 X147.323 Y125.654 E.07262
G1 X147.323 Y127.969 E.07259
G1 X127.534 Y127.969 E.62047
G1 X127.534 Y125.654 E.07259
G1 X125.218 Y125.654 E.07262
G1 X125.218 Y121.022 E.14523
G1 X120.587 Y121.022 E.1452
G1 X120.587 Y118.707 E.07259
G1 X118.271 Y118.707 E.07262
G1 X118.271 Y98.918 E.62047
G1 X120.587 Y98.918 E.07262
G1 X120.587 Y96.602 E.07262
G1 X132.165 Y96.602 E.36302
G1 X132.165 Y94.286 E.07262
G1 X149.639 Y94.286 E.54788
G1 X149.639 Y96.545 E.07083
M204 S1000
G1 X135.63 Y109.315 F10800
M204 S800
G1 F1200
G1 X136.179 Y109.389 E.01737
G1 X136.583 Y109.767 E.01735
G1 X136.697 Y110.312 E.01746
G1 X136.525 Y110.945 E.02057
G1 X139.193 Y110.754 E.08387
G1 X139.567 Y111.219 E.01871
G1 X139.286 Y111.972 E.0252
G1 X139.043 Y112.389 E.01513
G1 X138.413 Y113.117 E.03019
G1 X137.593 Y113.686 E.03129
G1 X136.69 Y114.022 E.03021
G1 X135.768 Y114.127 E.0291
G1 X135.287 Y114.094 E.01512
G1 X134.779 Y113.994 E.01623
G1 X133.917 Y113.65 E.0291
G1 X133.48 Y113.373 E.01622
M73 Q3 S12
G1 X132.801 Y112.741 E.02908
G1 X132.19 Y111.787 E.03552
G1 X132.487 Y111.234 E.01968
G1 X135.144 Y111.044 E.08352
G1 X134.896 Y110.406 E.02146
M73 P3 R12
G1 X134.915 Y109.957 E.01409
G1 X135.142 Y109.572 E.01401
G1 X135.575 Y109.329 E.01557
M204 S1000
G1 X151.453 Y113.906 F10800
M204 S800
G1 F1200
G1 X151.453 Y96.941 E.53193
G1 X151.034 Y96.941 E.01314
G1 X151.034 Y113.736 E.5266
G1 X150.615 Y113.736 E.01314
G1 X150.615 Y96.941 E.5266
G1 X150.196 Y96.941 E.01314
G1 X150.196 Y113.736 E.5266
G1 X149.777 Y113.736 E.01314
G1 X149.777 Y96.941 E.5266
G1 X149.358 Y96.941 E.01314
G1 X149.299 Y125.314 E.88962
G1 X148.939 Y125.314 E.01129
G1 X148.939 Y94.626 E.9622
G1 X148.52 Y94.626 E.01314
M73 P4 R12
M73 Q4 S12
G1 X148.52 Y125.314 E.9622
G1 X148.101 Y125.314 E.01314
G1 X148.101 Y94.626 E.9622
G1 X147.682 Y94.626 E.01314
G1 X147.682 Y125.314 E.9622
G1 X147.263 Y125.314 E.01314
G1 X147.263 Y94.626 E.9622
G1 X146.844 Y94.626 E.01314
M73 P4 R11
G1 X146.844 Y127.63 E1.03482
G1 X146.425 Y127.63 E.01314
M73 P5 R11
M73 Q5 S12
G1 X146.425 Y94.626 E1.03482
G1 X146.006 Y94.626 E.01314
G1 X146.006 Y127.63 E1.03482
G1 X145.587 Y127.63 E.01314
M73 Q5 S11
G1 X145.587 Y94.626 E1.03482
G1 X145.168 Y94.626 E.01314
G1 X145.168 Y127.63 E1.03482
G1 X144.749 Y127.63 E.01314
M73 Q6 S11
G1 X144.749 Y94.626 E1.03482
G1 X144.33 Y94.626 E.01314
M73 P6 R11
G1 X144.33 Y127.63 E1.03482
G1 X143.911 Y127.63 E.01314
G1 X143.911 Y94.626 E1.03482
G1 X143.492 Y94.626 E.01314
G1 X143.492 Y127.63 E1.03482
G1 X143.073 Y127.63 E.01314
G1 X143.073 Y94.626 E1.03482
G1 X142.654 Y94.626 E.01314
M73 P7 R11
M73 Q7 S11
G1 X142.654 Y127.63 E1.03482
G1 X142.235 Y127.63 E.01314
G1 X142.235 Y94.626 E1.03482
G1 X141.816 Y94.626 E.01314
G1 X141.816 Y127.63 E1.03482
G1 X141.397 Y127.63 E.01314
G1 X141.397 Y94.626 E1.03482
G1 X140.978 Y94.626 E.01314
M73 Q8 S11
G1 X140.978 Y127.63 E1.03482
M73 P8 R11
G1 X140.559 Y127.63 E.01314
G1 X140.559 Y94.626 E1.03482
G1 X140.14 Y94.626 E.01314
G1 X140.14 Y127.63 E1.03482
G1 X139.721 Y127.63 E.01314
G1 X139.721 Y111.821 E.49568
G1 X139.303 Y112.61 E.028
G1 X139.303 Y127.63 E.47094
G1 X138.884 Y127.63 E.01314
G1 X138.884 Y113.123 E.45486
G1 X138.465 Y113.511 E.01791
G1 X138.465 Y127.63 E.44269
G1 X138.046 Y127.63 E.01314
M73 P9 R11
M73 Q9 S11
G1 X138.046 Y113.811 E.43329
G1 X137.627 Y114.043 E.01502
G1 X137.627 Y127.63 E.42601
G1 X137.208 Y127.63 E.01314
G1 X137.208 Y114.22 E.42046
G1 X136.789 Y114.347 E.01373
G1 X136.789 Y127.63 E.41648
G1 X136.37 Y127.63 E.01314
G1 X136.37 Y114.423 E.4141
G1 X135.951 Y114.457 E.01318
G1 X135.951 Y127.63 E.41303
G1 X135.532 Y127.63 E.01314
G1 X135.532 Y114.452 E.41319
G1 X135.113 Y114.408 E.01321
G1 X135.113 Y127.63 E.41457
G1 X134.694 Y127.63 E.01314
G1 X134.694 Y114.323 E.41723
G1 X134.275 Y114.185 E.01383
G1 X134.275 Y127.63 E.42156
G1 X133.856 Y127.63 E.01314
M73 P10 R11
M73 Q10 S11
G1 X133.856 Y113.996 E.42748
G1 X133.437 Y113.75 E.01523
G1 X133.437 Y127.63 E.4352
G1 X133.018 Y127.63 E.01314
G1 X133.018 Y113.432 E.44517
G1 X132.599 Y113.021 E.0184
G1 X132.599 Y127.63 E.45805
G1 X132.18 Y127.63 E.01314
G1 X132.18 Y112.46 E.47564
G1 X131.802 Y111.79 E.02412
G1 X132.18 Y111.088 E.025
G1 X132.18 Y96.941 E.44357
G1 X131.761 Y96.941 E.01314
G1 X131.761 Y127.63 E.96223
G1 X131.342 Y127.63 E.01314
G1 X131.342 Y96.941 E.96223
G1 X130.923 Y96.941 E.01314
M73 P11 R11
M73 Q11 S11
G1 X130.923 Y127.63 E.96223
G1 X130.504 Y127.63 E.01314
G1 X130.504 Y96.941 E.96223
G1 X130.085 Y96.941 E.01314
G1 X130.085 Y127.63 E.96223
G1 X129.666 Y127.63 E.01314
G1 X129.666 Y96.941 E.96223
G1 X129.247 Y96.941 E.01314
G1 X129.247 Y127.63 E.96223
G1 X128.828 Y127.63 E.01314
M73 P12 R11
M73 Q12 S11
G1 X128.828 Y96.941 E.96223
G1 X128.409 Y96.941 E.01314
G1 X128.409 Y127.63 E.96223
G1 X127.99 Y127.63 E.01314
G1 X127.99 Y96.941 E.96223
G1 X127.571 Y96.941 E.01314
M73 P12 R10
G1 X127.571 Y125.314 E.88962
G1 X127.152 Y125.314 E.01314
G1 X127.152 Y96.941 E.88962
G1 X126.733 Y96.941 E.01314
M73 P13 R10
M73 Q13 S11
G1 X126.733 Y125.314 E.88962
G1 X126.314 Y125.314 E.01314
M73 Q13 S10
G1 X126.314 Y96.941 E.88962
G1 X125.895 Y96.941 E.01314
G1 X125.895 Y125.314 E.88962
G1 X125.558 Y125.314 E.01057
G1 X125.558 Y120.683 E.1452
G1 X125.476 Y120.683 E.00257
G1 X125.476 Y96.941 E.74441
G1 X125.057 Y96.941 E.01314
G1 X125.057 Y120.683 E.74441
G1 X124.638 Y120.683 E.01314
M73 P14 R10
G1 X124.638 Y96.941 E.74441
M73 Q14 S10
G1 X124.219 Y96.941 E.01314
G1 X124.219 Y120.683 E.74441
G1 X123.8 Y120.683 E.01314
G1 X123.8 Y96.941 E.74441
G1 X123.381 Y96.941 E.01314
G1 X123.381 Y120.683 E.74441
G1 X122.962 Y120.683 E.01314
G1 X122.962 Y96.941 E.74441
G1 X122.543 Y96.941 E.01314
G1 X122.543 Y120.683 E.74441
G1 X122.124 Y120.683 E.01314
M73 P15 R10
G1 X122.124 Y96.941 E.74441
G1 X121.705 Y96.941 E.01314
M73 Q15 S10
G1 X121.705 Y120.683 E.74441
G1 X121.286 Y120.683 E.01314
G1 X121.286 Y96.941 E.74441
G1 X120.926 Y96.941 E.01129
G1 X120.926 Y99.257 E.07262
G1 X120.868 Y99.257 E.00182
G1 X120.868 Y118.367 E.59918
G1 X120.449 Y118.367 E.01314
G1 X120.449 Y99.257 E.59918
G1 X120.03 Y99.257 E.01314
G1 X120.03 Y118.367 E.59918
G1 X119.611 Y118.367 E.01314
G1 X119.611 Y99.257 E.59918
G1 X119.192 Y99.257 E.01314
M73 P16 R10
G1 X119.192 Y118.367 E.59918
G1 X118.773 Y118.367 E.01314
M73 Q16 S10
G1 X118.773 Y99.087 E.60451
M204 S1000
G1 X139.721 Y111.14 F10800
M204 S800
G1 F1200
G1 X139.721 Y94.626 E.51778
G1 X139.303 Y94.626 E.01311
G1 X139.303 Y110.406 E.49477
G1 X138.884 Y110.436 E.01317
G1 X138.884 Y94.626 E.49571
G1 X138.465 Y94.626 E.01314
G1 X138.465 Y110.466 E.49665
G1 X138.046 Y110.496 E.01317
G1 X138.046 Y94.626 E.49759
G1 X137.627 Y94.626 E.01314
G1 X137.627 Y110.526 E.49853
G1 X137.208 Y110.556 E.01317
M73 P17 R10
G1 X137.208 Y94.626 E.49947
G1 X136.789 Y94.626 E.01314
M73 Q17 S10
G1 X136.789 Y109.462 E.46517
G1 X136.37 Y109.107 E.01722
G1 X136.37 Y94.626 E.45404
G1 X135.951 Y94.626 E.01314
G1 X135.951 Y108.974 E.44987
G1 X135.532 Y108.99 E.01315
G1 X135.532 Y94.626 E.45037
G1 X135.113 Y94.626 E.01314
G1 X135.113 Y109.163 E.4558
G1 X134.694 Y109.613 E.01928
G1 X134.694 Y94.626 E.46991
G1 X134.275 Y94.626 E.01314
G1 X134.275 Y110.766 E.50606
G1 X133.856 Y110.796 E.01317
G1 X133.856 Y94.626 E.507
G1 X133.437 Y94.626 E.01314
G1 X133.437 Y110.826 E.50794
G1 X133.018 Y110.856 E.01317
M73 P18 R10
M73 Q18 S10
G1 X133.018 Y94.626 E.50888
G1 X132.599 Y94.626 E.01314
G1 X132.599 Y111.056 E.51515
M204 S1000
;WIPE_START
G1 F8640
G1 X132.599 Y107.591 E-.8
;WIPE_END
G1 Z.6 F720
G1 X134.514 Y112.406 F10800
G1 Z.2 F720
G1 E.8 F2100
M204 S800
;TYPE:Perimeter
;WIDTH:0.412901
G1 F1200
G1 X134.508 Y112.402 E.00022
G1 X135.461 Y112.377 E.02933
;WIDTH:0.437688
G1 X136.04 Y112.345 E.01903
G1 X136.621 Y112.277 E.0192
;WIDTH:0.390465
G1 X137.458 Y112.185 E.02433
G1 X137.157 Y112.375 E.01029
G1 X136.675 Y112.62 E.01563
;WIDTH:0.437688
G1 X136.053 Y112.739 E.02079
G1 X135.45 Y112.746 E.01979
;WIDTH:0.412901
G1 X134.853 Y112.589 E.01899
G1 X134.566 Y112.434 E.01003
M204 S1000
;WIPE_START
G1 F8640
G1 X134.514 Y112.406 E-.01364
G1 X134.508 Y112.402 E-.00167
G1 X135.461 Y112.377 E-.22013
G1 X136.04 Y112.345 E-.1339
G1 X136.621 Y112.277 E-.13507
G1 X137.458 Y112.185 E-.19443
G1 X137.157 Y112.375 E-.08219
G1 X137.084 Y112.412 E-.01897
;WIPE_END
G1 Z.6 F720
G1 X133.503 Y112.045 F10800
G1 Z.2 F720
G1 E.8 F2100
M204 S800
;TYPE:External perimeter
;WIDTH:0.419999
G1 F1200
G1 X133.498 Y112.04 E.00022
G1 X133.757 Y111.965 E.00845
G1 X134.257 Y112.032 E.01582
G1 X135.215 Y112.021 E.03004
G1 X136.593 Y111.916 E.04333
G1 X137.201 Y111.861 E.01914
G1 X138.391 Y111.602 E.03819
G1 X138.093 Y112.14 E.01928
G1 X137.816 Y112.373 E.01135
G1 X137.324 Y112.697 E.01847
G1 X136.76 Y112.972 E.01967
G1 X136.049 Y113.125 E.0228
G1 X135.333 Y113.101 E.02246
G1 X134.651 Y112.908 E.02222
G1 X133.986 Y112.509 E.02432
G1 X133.546 Y112.086 E.01914
M204 S1000
M106 S84.15
;LAYER_CHANGE
;Z:0.4
;HEIGHT:0.2
;BEFORE_LAYER_CHANGE
G92 E0.0
;0.4


;WIPE_START
G1 F8640
G1 X133.503 Y112.045 E-.01372
G1 X133.498 Y112.04 E-.00163
G1 X133.757 Y111.965 E-.06226
G1 X134.257 Y112.032 E-.11648
G1 X135.215 Y112.021 E-.22122
G1 X136.593 Y111.916 E-.31911
G1 X136.876 Y111.89 E-.06558
;WIPE_END
G1 Z.4 F720
;AFTER_LAYER_CHANGE
;0.4
M104 S210 ; set temperature
G1 Z.8
G1 X123.535 Y99.55 F10800
G1 Z.4 F720
G1 E.8 F2100
;TYPE:Support material
;WIDTH:0.38
G1 F2700
G1 X149.006 Y99.55 E.71391
G1 X149.006 Y101.865 E.06489
G1 X121.219 Y101.865 E.77882
G1 X121.219 Y104.181 E.06491
G1 X149.006 Y104.181 E.77882
G1 X149.006 Y106.496 E.06489
G1 X136.824 Y106.496 E.34144
G1 X135.606 Y106.354 E.03437
G1 X134.746 Y106.496 E.02443
G1 X121.219 Y106.496 E.37914
G1 X121.219 Y108.812 E.06491
G1 X132.194 Y108.812 E.30761
G1 X131.979 Y109.572 E.02214
M73 P19 R10
G1 X131.929 Y110.045 E.01333
G1 X132.035 Y111.128 E.0305
G1 X121.219 Y111.128 E.30315
G1 X121.219 Y113.443 E.06489
G1 X132.481 Y113.443 E.31565
M73 Q19 S10
G1 X132.481 Y113.759 E.00886
G1 X134.213 Y113.759 E.04854
G1 X134.827 Y113.98 E.01829
G1 X135.769 Y114.102 E.02662
G1 X136.713 Y113.991 E.02664
G1 X137.167 Y113.849 E.01333
G1 X137.945 Y113.443 E.0246
G1 X146.691 Y113.443 E.24514
G1 X146.691 Y115.759 E.06491
G1 X121.219 Y115.759 E.71394
;WIPE_START
G1 F8640
G1 X124.684 Y115.759 E-.8
;WIPE_END
G1 Z.8 F720
G1 X123.535 Y116.011 F10800
G1 Z.4 F720
G1 E.8 F2100
G1 F2700
G1 X123.535 Y118.075 E.05785
G1 X146.691 Y118.075 E.64902
G1 X146.691 Y120.39 E.06489
G1 X128.166 Y120.39 E.51922
G1 X128.166 Y122.706 E.06491
G1 X146.691 Y122.706 E.51922
;WIPE_START
G1 F8640
G1 X143.226 Y122.706 E-.8
;WIPE_END
G1 Z.8 F720
G1 X144.375 Y122.958 F10800
G1 Z.4 F720
G1 E.8 F2100
G1 F2700
G1 X144.375 Y125.021 E.05782
G1 X130.481 Y125.021 E.38942
G1 X130.481 Y122.958 E.05782
;WIPE_START
G1 F8640
G1 X130.481 Y125.021 E-.47635
G1 X131.883 Y125.021 E-.32365
;WIPE_END
G1 Z.8 F720
G1 X132.892 Y113.443 F10800
G1 Z.4 F720
G1 E.8 F2100
;TYPE:Support material interface
G1 F2160
G1 X132.797 Y113.443 E.00266
G1 X132.797 Y112.677 E.02147
G1 X133.05 Y112.953 E.01049
G1 X133.05 Y113.443 E.01373
G1 X133.566 Y113.395 E.01453
;WIPE_START
G1 F8640
G1 X133.05 Y113.443 E-.11966
G1 X133.05 Y112.953 E-.11314
G1 X132.797 Y112.677 E-.08645
G1 X132.797 Y113.443 E-.17687
G1 X132.892 Y113.443 E-.02194
;WIPE_END
G1 E-.28194 F2100
G1 Z.8 F720
G1 X138.073 Y113.351 F10800
G1 Z.4 F720
G1 E.8 F2100
;TYPE:Support material
G1 F2700
G1 X138.691 Y112.791 E.02338
G1 X139.001 Y112.388 E.01425
G1 X139.241 Y111.977 E.01334
G1 X139.55 Y111.128 E.02532
G1 X149.006 Y111.128 E.26504
G1 X149.006 Y108.812 E.06491
G1 X139.387 Y108.812 E.2696
G1 X139.147 Y108.303 E.01577
G1 X138.601 Y107.564 E.02575
G1 X138.229 Y107.218 E.01424
G1 X137.495 Y106.749 E.02441
G1 X135.113 Y99.297 F10800
G1 F2700
G1 X135.113 Y97.234 E.05782
G1 X146.691 Y97.234 E.32451
G1 X146.691 Y99.297 E.05782
;LAYER_CHANGE
;Z:0.5
;HEIGHT:0.1
;BEFORE_LAYER_CHANGE
G92 E0.0
;0.5


;WIPE_START
G1 F8640
G1 X146.691 Y97.234 E-.47635
G1 X145.289 Y97.234 E-.32365
;WIPE_END
G1 Z.5 F720
;AFTER_LAYER_CHANGE
;0.5
; stop printing object Fan v3.stl id:0 copy 0
G1 Z.9
G1 X146.674 Y92.105 F10800
G1 Z.5 F720
M73 P20 R10
G1 E.8 F2100
;TYPE:Skirt/Brim
;WIDTH:0.42
;HEIGHT:0.3
G1 F2700
G1 X149.639 Y92.098 E.13151
G1 X151.186 Y92.739 E.07427
G1 X153.502 Y95.054 E.14524
G1 X154.143 Y96.602 E.07431
G1 X154.143 Y114.075 E.77501
G1 X151.785 Y126.083 E.54278
M73 Q20 S10
G1 X151.186 Y127.201 E.05626
G1 X148.87 Y129.517 E.14528
G1 X147.323 Y130.158 E.07427
G1 X127.534 Y130.158 E.87774
G1 X125.986 Y129.517 E.07431
G1 X116.724 Y120.254 E.58101
G1 X116.083 Y118.707 E.07427
G1 X116.083 Y98.918 E.87774
G1 X116.724 Y97.37 E.07431
G1 X119.039 Y95.054 E.14524
G1 X120.158 Y94.456 E.05628
G1 X131.736 Y92.14 E.52371
G1 X146.614 Y92.105 E.65991
;WIPE_START
G1 F8640
G1 X146.674 Y92.105 E-.01385
G1 X149.639 Y92.098 E-.68463
G1 X150.045 Y92.266 E-.10152
;WIPE_END
G1 Z.9 F720
; printing object Fan v3.stl id:0 copy 0
G1 X133.509 Y111.372 F10800
G1 Z.5 F720
G1 E.8 F2100
;TYPE:Overhang perimeter
;WIDTH:0.5
G1 F900
G1 X133.487 Y111.339 E.00215
G1 X133.284 Y110.742 E.03426
G1 X133.232 Y110.114 E.03424
G1 X133.334 Y109.492 E.03425
G1 X133.585 Y108.914 E.03424
G1 X133.954 Y108.432 E.03298
G1 X134.484 Y108.014 E.03667
G1 X135.037 Y107.767 E.03291
G1 X135.657 Y107.658 E.0342
G1 X136.284 Y107.702 E.03415
G1 X136.881 Y107.899 E.03416
G1 X137.413 Y108.236 E.03422
G1 X137.847 Y108.693 E.03424
