; generated by PrusaSlicer 2.9.2 on 2025-07-14 at 20:33:25 UTC


;
;
; 

; external perimeters extrusion width = 0.60mm
; perimeters extrusion width = 0.50mm
; infill extrusion width = 0.50mm
; solid infill extrusion width = 0.50mm
; top infill extrusion width = 0.45mm
; support material extrusion width = 0.38mm
; first layer extrusion width = 0.42mm

M73 P0 R8
M73 Q0 S8
M201 X1000 Y1000 Z200 E5000 ; sets maximum accelerations, mm/sec^2
M203 X200 Y200 Z12 E120 ; sets maximum feedrates, mm / sec
M204 S1250 T1250 ; sets acceleration (S) and retract acceleration (R), mm/sec^2
M205 X8.00 Y8.00 Z0.40 E4.50 ; sets the jerk limits, mm/sec
M205 S0 T0 ; sets the minimum extruding and travel feed rate, mm/sec

; printing object Fan Grill v2.stl id:0 copy 0
; stop printing object Fan Grill v2.stl id:0 copy 0

;TYPE:Custom
M862.3 P "MK3S" ; printer model check
M862.1 P0.4 ; nozzle diameter check
M115 U3.14.1 ; tell printer latest fw version
G90 ; use absolute coordinates
M83 ; extruder relative mode
M104 S215 ; set extruder temp
M140 S60 ; set bed temp
M190 S60 ; wait for bed temp
M109 S215 ; wait for extruder temp
G28 W ; home all without mesh bed level
G80 X97.6229 Y77.6229 W54.7542 H54.7542 ; mesh bed levelling

G1 Z0.2 F720
G1 Y-3 F1000 ; go outside print area
G92 E0
G1 X60 E9 F1000 ; intro line
G1 X100 E12.5 F1000 ; intro line

G92 E0
M221 S95

; Don't change E values below. Excessive value can damage the printer.

M907 E538 ; set extruder motor current
G21 ; set units to millimeters
G90 ; use absolute coordinates
M83 ; use relative distances for extrusion

M900 K0.05 ; Filament gcode LA 1.5
M900 K30 ; Filament gcode LA 1.0




M107
;LAYER_CHANGE
;Z:0.2
;HEIGHT:0.2
G1 E-.8 F2100
M73 P1 R8
M73 Q1 S8
G1 Z.6 F720
G1 X99.121 Y79.473 F10800
G1 Z.2 F720
G1 E.8 F2100
M204 S800
;TYPE:Skirt/Brim
;WIDTH:0.42
G1 F1200
G1 X99.765 Y78.876 E.02753
G1 X100.955 Y78.189 E.04308
G1 X101.795 Y77.929 E.02757
G1 X102.857 Y77.811 E.0335
G1 X147.334 Y77.82 E1.39455
G1 X148.205 Y77.929 E.02752
G1 X149.045 Y78.189 E.02757
G1 X149.827 Y78.59 E.02755
G1 X150.527 Y79.121 E.02755
G1 X151.124 Y79.765 E.02753
G1 X151.811 Y80.955 E.04308
G1 X152.071 Y81.795 E.02757
G1 X152.18 Y82.666 E.02752
M73 Q2 S8
G1 X152.189 Y127.143 E1.39455
G1 X152.071 Y128.205 E.0335
M73 P2 R8
G1 X151.811 Y129.045 E.02757
G1 X151.41 Y129.827 E.02755
G1 X150.879 Y130.527 E.02755
G1 X150.235 Y131.124 E.02753
G1 X149.045 Y131.811 E.04308
G1 X148.205 Y132.071 E.02757
G1 X147.143 Y132.189 E.0335
G1 X102.857 Y132.189 E1.38856
G1 X101.795 Y132.071 E.0335
G1 X100.955 Y131.811 E.02757
G1 X100.173 Y131.41 E.02755
G1 X99.473 Y130.879 E.02755
G1 X98.876 Y130.235 E.02753
M73 Q3 S8
G1 X98.189 Y129.045 E.04308
G1 X97.929 Y128.205 E.02757
G1 X97.811 Y127.143 E.0335
M73 P3 R8
G1 X97.811 Y82.857 E1.38856
G1 X97.929 Y81.795 E.0335
G1 X98.189 Y80.955 E.02757
G1 X98.59 Y80.173 E.02755
G1 X99.085 Y79.521 E.02567
M204 S1000
;WIPE_START
G1 F8640
G1 X99.121 Y79.473 E-.01385
G1 X99.765 Y78.876 E-.20277
G1 X100.955 Y78.189 E-.31728
G1 X101.795 Y77.929 E-.20304
G1 X102.066 Y77.899 E-.06306
;WIPE_END
G1 Z.6 F720
; printing object Fan Grill v2.stl id:0 copy 0
G1 X123.003 Y103.003 F10800
G1 Z.2 F720
G1 E.8 F2100
M204 S800
;TYPE:External perimeter
;WIDTH:0.38292
G1 F1200
G1 X122.35 Y102.35 E.02611
;WIDTH:0.394112
G1 X122.274 Y102.197 E.00499
G1 X122.436 Y102.143 E.00499
;WIDTH:0.38292
G1 X123.908 Y102.143 E.04162
M204 S1000
;WIPE_START
G1 F8640
G1 X122.436 Y102.143 E-.33989
G1 X122.274 Y102.197 E-.03943
G1 X122.35 Y102.35 E-.03945
G1 X123.003 Y103.003 E-.21323
;WIPE_END
G1 E-.168 F2100
G1 Z.6 F720
G1 X126.071 Y102.144 F10800
G1 Z.2 F720
G1 E.8 F2100
M204 S800
G1 F1200
G1 X127.564 Y102.143 E.04221
;WIDTH:0.394112
G1 X127.726 Y102.197 E.00499
G1 X127.65 Y102.35 E.00499
;WIDTH:0.38292
G1 X126.997 Y103.003 E.02611
M204 S1000
;WIPE_START
G1 F8640
G1 X127.65 Y102.35 E-.21323
G1 X127.726 Y102.197 E-.03945
G1 X127.564 Y102.143 E-.03943
G1 X126.071 Y102.144 E-.34474
;WIPE_END
G1 E-.16315 F2100
G1 Z.6 F720
G1 X127.835 Y105 F10800
G1 Z.2 F720
G1 E.8 F2100
M204 S800
G1 F1200
G1 X146.444 Y105 E.5261
M204 S1000
;WIPE_START
G1 F8640
M73 P4 R8
M73 Q4 S8
G1 X142.979 Y105 E-.8
;WIPE_END
G1 Z.6 F720
G1 X146.257 Y102.142 F10800
G1 Z.2 F720
G1 E.8 F2100
M204 S800
G1 F1200
G1 X128.15 Y102.143 E.51191
;WIDTH:0.394112
G1 X127.988 Y102.089 E.00499
G1 X128.064 Y101.936 E.00499
;WIDTH:0.38292
G1 X130.507 Y99.493 E.09767
;WIDTH:0.394112
G1 X130.583 Y99.34 E.00499
G1 X130.421 Y99.286 E.00499
;WIDTH:0.38292
G1 X119.579 Y99.286 E.30652
;WIDTH:0.394112
G1 X119.417 Y99.34 E.00499
G1 X119.493 Y99.493 E.00499
;WIDTH:0.38292
G1 X121.936 Y101.936 E.09767
;WIDTH:0.394112
G1 X122.012 Y102.089 E.00499
G1 X121.85 Y102.143 E.00499
;WIDTH:0.38292
G1 X103.73 Y102.141 E.51227
M204 S1000
;WIPE_START
G1 F8640
M73 P4 R7
G1 X107.195 Y102.141 E-.8
;WIPE_END
G1 Z.6 F720
G1 X103.545 Y105 F10800
G1 Z.2 F720
G1 E.8 F2100
M204 S800
G1 F1200
G1 X122.176 Y105 E.52672
M204 S1000
;WIPE_START
G1 F8640
G1 X118.711 Y105 E-.8
;WIPE_END
G1 Z.6 F720
M73 Q5 S8
G1 X123.929 Y107.856 F10800
G1 Z.2 F720
M73 P5 R7
G1 E.8 F2100
M204 S800
G1 F1200
G1 X122.436 Y107.857 E.04221
;WIDTH:0.394112
G1 X122.274 Y107.803 E.00499
G1 X122.35 Y107.65 E.00499
;WIDTH:0.38292
G1 X122.996 Y107.004 E.02583
M204 S1000
;WIPE_START
G1 F8640
G1 X122.35 Y107.65 E-.21095
G1 X122.274 Y107.803 E-.03945
G1 X122.436 Y107.857 E-.03943
G1 X123.929 Y107.856 E-.34474
;WIPE_END
G1 E-.16543 F2100
G1 Z.6 F720
G1 X127.004 Y107.004 F10800
G1 Z.2 F720
G1 E.8 F2100
M204 S800
G1 F1200
G1 X127.65 Y107.65 E.02583
;WIDTH:0.394112
G1 X127.726 Y107.803 E.00499
G1 X127.564 Y107.857 E.00499
;WIDTH:0.38292
G1 X126.092 Y107.857 E.04162
M204 S1000
;WIPE_START
G1 F8640
G1 X127.564 Y107.857 E-.33989
G1 X127.726 Y107.803 E-.03943
G1 X127.65 Y107.65 E-.03945
G1 X127.004 Y107.004 E-.21095
;WIPE_END
G1 E-.17028 F2100
G1 Z.6 F720
G1 X140.171 Y120.171 F10800
G1 Z.2 F720
M73 Q5 S7
G1 E.8 F2100
M204 S800
G1 F1200
G1 X139.493 Y119.493 E.02711
;WIDTH:0.394112
G1 X139.417 Y119.34 E.00499
G1 X139.579 Y119.286 E.00499
;WIDTH:0.38292
G1 X140.876 Y119.286 E.03667
M204 S1000
;WIPE_START
G1 F8640
G1 X139.579 Y119.286 E-.29948
G1 X139.417 Y119.34 E-.03943
G1 X139.493 Y119.493 E-.03945
G1 X140.171 Y120.171 E-.2214
;WIPE_END
G1 E-.20024 F2100
G1 Z.6 F720
G1 X143.063 Y116.429 F10800
G1 Z.2 F720
G1 E.8 F2100
M204 S800
G1 F1200
G1 X136.722 Y116.429 E.17927
;WIDTH:0.394112
G1 X136.559 Y116.483 E.00501
G1 X136.636 Y116.636 E.005
;WIDTH:0.38292
G1 X139.078 Y119.078 E.09763
;WIDTH:0.394112
G1 X139.155 Y119.232 E.00503
G1 X138.993 Y119.286 E.00499
;WIDTH:0.38292
G1 X111.007 Y119.286 E.7912
;WIDTH:0.394112
G1 X110.845 Y119.232 E.00499
G1 X110.922 Y119.078 E.00503
;WIDTH:0.38292
G1 X113.364 Y116.636 E.09763
;WIDTH:0.39411
G1 X113.441 Y116.483 E.005
G1 X113.278 Y116.429 E.00501
;WIDTH:0.38292
G1 X106.916 Y116.429 E.17986
M204 S1000
;WIPE_START
G1 F8640
G1 X110.381 Y116.429 E-.8
;WIPE_END
G1 Z.6 F720
G1 X105.377 Y113.572 F10800
G1 Z.2 F720
M73 Q6 S7
G1 E.8 F2100
M73 P6 R7
M204 S800
G1 F1200
G1 X116.135 Y113.571 E.30414
;WIDTH:0.394112
G1 X116.298 Y113.626 E.00502
G1 X116.221 Y113.779 E.005
;WIDTH:0.38292
G1 X113.779 Y116.221 E.09763
;WIDTH:0.394112
G1 X113.702 Y116.374 E.005
G1 X113.865 Y116.429 E.00502
;WIDTH:0.38292
G1 X136.135 Y116.429 E.6296
;WIDTH:0.394112
G1 X136.298 Y116.374 E.00502
G1 X136.221 Y116.221 E.005
;WIDTH:0.38292
G1 X133.779 Y113.779 E.09763
;WIDTH:0.394112
G1 X133.702 Y113.626 E.005
G1 X133.865 Y113.571 E.00502
;WIDTH:0.38292
G1 X144.602 Y113.571 E.30355
M204 S1000
;WIPE_START
G1 F8640
G1 X141.137 Y113.571 E-.8
;WIPE_END
G1 Z.6 F720
G1 X148.623 Y127.539 F10800
G1 Z.2 F720
G1 E.8 F2100
M204 S800
;TYPE:Perimeter
;WIDTH:0.515971
G1 F1200
G1 X148.598 Y127.662 E.00494
G1 X148.44 Y127.984 E.01411
G1 X148.144 Y128.32 E.01761
G1 X147.846 Y128.52 E.01412
G1 X147.421 Y128.663 E.01764
;WIDTH:0.518501
G1 X147.063 Y128.69 E.0142
;WIDTH:0.534546
G1 X146.819 Y128.666 E.01002
G1 X146.656 Y128.579 E.00755
;WIDTH:0.496364
G1 X146.493 Y128.491 E.00698
;WIDTH:0.458182
G1 X146.33 Y128.404 E.00638
;WIDTH:0.419999
G1 X146.031 Y128.15 E.0123
G1 X145.808 Y127.828 E.01228
G1 X145.676 Y127.459 E.01229
G1 X145.644 Y127.069 E.01227
G1 X145.715 Y126.684 E.01227
G1 X145.882 Y126.33 E.01227
G1 X146.136 Y126.031 E.0123
G1 X146.458 Y125.808 E.01228
G1 X146.826 Y125.676 E.01226
G1 X147.144 Y125.648 E.01001
G1 X147.602 Y125.714 E.01451
G1 X147.956 Y125.882 E.01229
G1 X148.255 Y126.136 E.0123
;WIDTH:0.467901
G1 X148.593 Y126.675 E.02248
;WIDTH:0.501224
G1 X148.63 Y126.747 E.00308
;WIDTH:0.534546
G1 X148.666 Y126.819 E.00329
G1 X148.687 Y127.223 E.01654
;WIDTH:0.515971
G1 X148.635 Y127.481 E.01035
M204 S1000
G1 X148.218 Y127.431 F10800
M204 S800
;TYPE:External perimeter
;WIDTH:0.419999
G1 F1200
G1 X148.206 Y127.499 E.00217
G1 X148.104 Y127.726 E.0078
G1 X147.885 Y127.983 E.01059
G1 X147.684 Y128.129 E.00779
G1 X147.366 Y128.241 E.01057
G1 X147.118 Y128.267 E.00782
G1 X146.828 Y128.223 E.0092
G1 X146.559 Y128.104 E.00922
G1 X146.33 Y127.921 E.00919
G1 X146.157 Y127.684 E.0092
G1 X146.05 Y127.41 E.00922
G1 X146.018 Y127.118 E.00921
G1 X146.063 Y126.828 E.0092
G1 X146.181 Y126.559 E.00921
G1 X146.365 Y126.33 E.00921
G1 X146.602 Y126.157 E.0092
G1 X146.876 Y126.05 E.00922
G1 X147.111 Y126.024 E.00741
G1 X147.457 Y126.063 E.01092
G1 X147.726 Y126.181 E.00921
G1 X147.955 Y126.365 E.00921
G1 X148.129 Y126.602 E.00922
G1 X148.235 Y126.876 E.00921
G1 X148.267 Y127.167 E.00918
G1 X148.229 Y127.372 E.00654
M204 S1000
;WIPE_START
G1 F8640
G1 X148.218 Y127.431 E-.01386
G1 X148.206 Y127.499 E-.01594
G1 X148.104 Y127.726 E-.05746
G1 X147.885 Y127.983 E-.07797
G1 X147.684 Y128.129 E-.05736
G1 X147.366 Y128.241 E-.07785
G1 X147.118 Y128.267 E-.05758
G1 X146.828 Y128.223 E-.06773
G1 X146.559 Y128.104 E-.06792
G1 X146.33 Y127.921 E-.06769
G1 X146.157 Y127.684 E-.06775
G1 X146.05 Y127.41 E-.06792
G1 X146.018 Y127.118 E-.06783
G1 X146.041 Y126.968 E-.03514
;WIPE_END
G1 Z.6 F720
G1 X117.923 Y125.001 F10800
G1 Z.2 F720
G1 E.8 F2100
M204 S800
;WIDTH:0.38292
G1 F1200
G1 X132.056 Y125 E.39956
M204 S1000
;WIPE_START
G1 F8640
M73 P7 R7
M73 Q7 S7
G1 X128.591 Y125 E-.8
;WIPE_END
G1 Z.6 F720
G1 X112.421 Y122.144 F10800
G1 Z.2 F720
G1 E.8 F2100
M204 S800
G1 F1200
G1 X137.558 Y122.143 E.71065
M204 S1000
;WIPE_START
G1 F8640
G1 X134.093 Y122.143 E-.8
;WIPE_END
G1 Z.6 F720
G1 X144.623 Y96.428 F10800
G1 Z.2 F720
G1 E.8 F2100
M204 S800
G1 F1200
G1 X133.865 Y96.429 E.30414
;WIDTH:0.394112
G1 X133.702 Y96.374 E.00502
G1 X133.779 Y96.221 E.005
;WIDTH:0.38292
G1 X136.221 Y93.779 E.09763
;WIDTH:0.394112
G1 X136.298 Y93.626 E.005
G1 X136.135 Y93.571 E.00502
;WIDTH:0.38292
G1 X113.865 Y93.571 E.6296
;WIDTH:0.394112
G1 X113.702 Y93.626 E.00502
G1 X113.779 Y93.779 E.005
;WIDTH:0.38292
G1 X116.221 Y96.221 E.09763
;WIDTH:0.394112
G1 X116.298 Y96.374 E.005
M73 Q8 S7
G1 X116.135 Y96.429 E.00502
;WIDTH:0.38292
G1 X105.398 Y96.429 E.30355
M204 S1000
;WIPE_START
G1 F8640
M73 P8 R7
G1 X108.863 Y96.429 E-.8
;WIPE_END
G1 Z.6 F720
G1 X104.366 Y99.286 F10800
G1 Z.2 F720
G1 E.8 F2100
M204 S800
G1 F1200
G1 X118.993 Y99.286 E.41352
;WIDTH:0.394112
G1 X119.155 Y99.232 E.00499
G1 X119.078 Y99.078 E.00503
;WIDTH:0.38292
G1 X116.636 Y96.636 E.09763
;WIDTH:0.394112
G1 X116.559 Y96.483 E.005
G1 X116.722 Y96.429 E.00501
;WIDTH:0.38292
G1 X133.278 Y96.429 E.46806
;WIDTH:0.394112
G1 X133.441 Y96.483 E.00501
G1 X133.364 Y96.636 E.005
;WIDTH:0.38292
G1 X130.922 Y99.078 E.09763
;WIDTH:0.394112
G1 X130.845 Y99.232 E.00503
G1 X131.007 Y99.286 E.00499
;WIDTH:0.38292
G1 X145.655 Y99.285 E.41412
M204 S1000
;WIPE_START
G1 F8640
G1 X142.19 Y99.285 E-.8
;WIPE_END
G1 Z.6 F720
G1 X143.084 Y93.571 F10800
G1 Z.2 F720
G1 E.8 F2100
M204 S800
G1 F1200
G1 X136.722 Y93.571 E.17986
;WIDTH:0.394112
G1 X136.559 Y93.517 E.00501
G1 X136.636 Y93.364 E.005
;WIDTH:0.38292
G1 X139.078 Y90.922 E.09763
;WIDTH:0.394112
G1 X139.155 Y90.768 E.00503
G1 X138.993 Y90.714 E.00499
;WIDTH:0.38292
G1 X111.007 Y90.714 E.7912
;WIDTH:0.394112
G1 X110.845 Y90.768 E.00499
M73 P9 R7
M73 Q9 S7
G1 X110.922 Y90.922 E.00503
;WIDTH:0.38292
G1 X113.364 Y93.364 E.09763
;WIDTH:0.394112
G1 X113.441 Y93.517 E.005
G1 X113.278 Y93.571 E.00501
;WIDTH:0.38292
G1 X106.937 Y93.571 E.17927
M204 S1000
;WIPE_START
G1 F8640
G1 X110.402 Y93.571 E-.8
;WIPE_END
G1 Z.6 F720
G1 X109.836 Y89.836 F10800
G1 Z.2 F720
G1 E.8 F2100
M204 S800
G1 F1200
G1 X110.507 Y90.507 E.02683
;WIDTH:0.394112
G1 X110.583 Y90.66 E.00499
G1 X110.421 Y90.714 E.00499
;WIDTH:0.38292
G1 X109.124 Y90.714 E.03667
M204 S1000
;WIPE_START
G1 F8640
G1 X110.421 Y90.714 E-.29948
G1 X110.583 Y90.66 E-.03943
G1 X110.507 Y90.507 E-.03945
G1 X109.836 Y89.836 E-.21911
;WIPE_END
G1 E-.20253 F2100
G1 Z.6 F720
G1 X101.377 Y82.461 F10800
G1 Z.2 F720
G1 E.8 F2100
M204 S800
;TYPE:Perimeter
;WIDTH:0.515972
G1 F1200
G1 X101.402 Y82.338 E.00494
;WIDTH:0.516457
G1 X101.524 Y82.081 E.0112
G1 X101.821 Y81.709 E.01874
;WIDTH:0.513012
G1 X102.154 Y81.48 E.0158
;WIDTH:0.51597
G1 X102.579 Y81.337 E.01764
;WIDTH:0.532374
G1 X103.154 Y81.332 E.0234
G1 X103.326 Y81.42 E.00786
;WIDTH:0.494916
G1 X103.498 Y81.508 E.00726
;WIDTH:0.457458
G1 X103.67 Y81.596 E.00666
;WIDTH:0.419999
G1 X103.969 Y81.85 E.0123
G1 X104.192 Y82.172 E.01228
G1 X104.324 Y82.541 E.01229
G1 X104.356 Y82.931 E.01227
G1 X104.285 Y83.316 E.01227
G1 X104.118 Y83.67 E.01227
G1 X103.864 Y83.969 E.0123
G1 X103.542 Y84.192 E.01228
G1 X103.174 Y84.324 E.01226
G1 X102.783 Y84.356 E.0123
G1 X102.398 Y84.285 E.01227
G1 X102.044 Y84.118 E.01227
G1 X101.745 Y83.864 E.0123
;WIDTH:0.450007
G1 X101.573 Y83.596 E.01078
;WIDTH:0.480014
G1 X101.401 Y83.328 E.01157
;WIDTH:0.50728
G1 X101.368 Y83.254 E.00313
;WIDTH:0.534545
G1 X101.334 Y83.181 E.00329
G1 X101.313 Y82.777 E.01654
;WIDTH:0.515972
G1 X101.365 Y82.519 E.01035
M204 S1000
G1 X101.782 Y82.569 F10800
M204 S800
;TYPE:External perimeter
;WIDTH:0.419999
G1 F1200
G1 X101.794 Y82.501 E.00217
G1 X102.039 Y82.086 E.01511
G1 X102.316 Y81.871 E.01099
G1 X102.634 Y81.759 E.01057
G1 X103.116 Y81.763 E.01511
G1 X103.441 Y81.896 E.01101
G1 X103.67 Y82.079 E.00919
G1 X103.843 Y82.316 E.0092
G1 X103.95 Y82.59 E.00922
G1 X103.982 Y82.882 E.00921
G1 X103.937 Y83.172 E.0092
G1 X103.819 Y83.441 E.00921
G1 X103.635 Y83.67 E.00921
G1 X103.398 Y83.843 E.0092
G1 X103.124 Y83.95 E.00922
G1 X102.833 Y83.982 E.00918
G1 X102.542 Y83.937 E.00923
G1 X102.274 Y83.819 E.00918
G1 X102.045 Y83.635 E.00921
G1 X101.871 Y83.398 E.00922
G1 X101.765 Y83.124 E.00921
G1 X101.733 Y82.833 E.00918
G1 X101.771 Y82.628 E.00654
M204 S1000
;WIPE_START
G1 F8640
G1 X101.782 Y82.569 E-.01386
G1 X101.794 Y82.501 E-.01594
G1 X102.039 Y82.086 E-.11128
G1 X102.316 Y81.871 E-.08097
G1 X102.634 Y81.759 E-.07785
G1 X103.116 Y81.763 E-.1113
G1 X103.441 Y81.896 E-.08108
G1 X103.67 Y82.079 E-.06769
G1 X103.843 Y82.316 E-.06775
G1 X103.95 Y82.59 E-.06792
G1 X103.982 Y82.882 E-.06783
G1 X103.958 Y83.038 E-.03653
;WIPE_END
G1 Z.6 F720
G1 X141.167 Y89.945 F10800
G1 Z.2 F720
G1 E.8 F2100
M204 S800
;TYPE:Perimeter
G1 F1200
G1 X141.257 Y90.054 E.00443
G1 X141.387 Y90.342 E.00991
G1 X141.843 Y90.63 E.01691
G1 X142.358 Y91.146 E.02286
G1 X143.063 Y92.072 E.03649
G1 X143.46 Y92.776 E.02534
G1 X143.602 Y93.273 E.01621
G1 X143.987 Y93.644 E.01676
G1 X144.343 Y94.107 E.01831
G1 X144.851 Y95.051 E.03361
G1 X145.046 Y95.602 E.01833
G1 X145.158 Y96.203 E.01917
G1 X145.509 Y96.659 E.01804
G1 X145.771 Y97.15 E.01745
G1 X146.079 Y98.019 E.02891
G1 X146.185 Y98.567 E.0175
G1 X146.2 Y99.134 E.01778
G1 X146.474 Y99.609 E.01719
G1 X146.661 Y100.117 E.01697
G1 X146.839 Y100.986 E.02781
G1 X146.866 Y101.527 E.01698
G1 X146.801 Y102.067 E.01705
M73 Q10 S7
G1 X147.005 Y102.561 E.01676
G1 X147.122 Y103.083 E.01677
G1 X147.18 Y103.952 E.02731
G1 X147.134 Y104.485 E.01677
M73 P10 R7
G1 X146.998 Y105 E.0167
G1 X147.134 Y105.515 E.0167
G1 X147.18 Y106.048 E.01677
G1 X147.122 Y106.917 E.02731
G1 X147.005 Y107.439 E.01677
G1 X146.801 Y107.933 E.01676
G1 X146.866 Y108.452 E.0164
G1 X146.842 Y108.998 E.01714
G1 X146.661 Y109.883 E.02832
G1 X146.474 Y110.391 E.01697
G1 X146.2 Y110.866 E.01719
G1 X146.185 Y111.431 E.01772
