; generated by PrusaSlicer 2.9.2 on 2025-07-14 at 19:08:30 UTC


;
;
; 

; external perimeters extrusion width = 0.60mm
; perimeters extrusion width = 0.50mm
; infill extrusion width = 0.50mm
; solid infill extrusion width = 0.50mm
; top infill extrusion width = 0.45mm
; support material extrusion width = 0.38mm
; first layer extrusion width = 0.42mm

M73 P0 R12
M73 Q0 S13
M201 X1000 Y1000 Z200 E5000 ; sets maximum accelerations, mm/sec^2
M203 X200 Y200 Z12 E120 ; sets maximum feedrates, mm / sec
M204 S1250 T1250 ; sets acceleration (S) and retract acceleration (R), mm/sec^2
M205 X8.00 Y8.00 Z0.40 E4.50 ; sets the jerk limits, mm/sec
M205 S0 T0 ; sets the minimum extruding and travel feed rate, mm/sec

; printing object Shell v3.stl id:0 copy 0
; stop printing object Shell v3.stl id:0 copy 0

;TYPE:Custom
M862.3 P "MK3S" ; printer model check
M862.1 P0.4 ; nozzle diameter check
M115 U3.14.1 ; tell printer latest fw version
G90 ; use absolute coordinates
M83 ; extruder relative mode
M104 S215 ; set extruder temp
M140 S60 ; set bed temp
M190 S60 ; wait for bed temp
M109 S215 ; wait for extruder temp
G28 W ; home all without mesh bed level
G80 X104.005 Y84.0048 W41.9904 H41.9904 ; mesh bed levelling

G1 Z0.2 F720
G1 Y-3 F1000 ; go outside print area
G92 E0
G1 X60 E9 F1000 ; intro line
G1 X100 E12.5 F1000 ; intro line

G92 E0
M221 S95

; Don't change E values below. Excessive value can damage the printer.

M907 E538 ; set extruder motor current
G21 ; set units to millimeters
G90 ; use absolute coordinates
M83 ; use relative distances for extrusion

M900 K0.05 ; Filament gcode LA 1.5
M900 K30 ; Filament gcode LA 1.0




M107
;LAYER_CHANGE
;Z:0.2
;HEIGHT:0.2
G1 E-.8 F2100
M73 Q0 S12
G1 Z.6 F720
G1 X105.332 Y85.594 F10800
G1 Z.2 F720
G1 E.8 F2100
M204 S800
;TYPE:Skirt/Brim
;WIDTH:0.42
G1 F1200
G1 X105.903 Y85.075 E.02419
G1 X106.857 Y84.527 E.0345
G1 X107.574 Y84.3 E.02358
G1 X108.51 Y84.193 E.02954
G1 X141.681 Y84.202 E1.04005
G1 X142.426 Y84.3 E.02356
M73 P1 R12
M73 Q1 S12
G1 X143.143 Y84.527 E.02358
G1 X143.809 Y84.874 E.02355
G1 X144.406 Y85.332 E.02359
G1 X144.913 Y85.887 E.02357
G1 X145.473 Y86.857 E.03512
G1 X145.7 Y87.574 E.02358
G1 X145.798 Y88.319 E.02356
G1 X145.807 Y121.49 E1.04005
G1 X145.7 Y122.426 E.02954
G1 X145.473 Y123.143 E.02358
G1 X145.126 Y123.81 E.02357
G1 X144.668 Y124.406 E.02357
G1 X144.113 Y124.913 E.02357
G1 X143.143 Y125.473 E.03512
G1 X142.426 Y125.7 E.02358
G1 X141.49 Y125.807 E.02954
G1 X108.51 Y125.807 E1.03406
G1 X107.574 Y125.7 E.02954
G1 X106.857 Y125.473 E.02358
G1 X106.19 Y125.126 E.02357
G1 X105.594 Y124.668 E.02357
G1 X105.087 Y124.113 E.02357
G1 X104.527 Y123.143 E.03512
G1 X104.3 Y122.426 E.02358
G1 X104.193 Y121.49 E.02954
G1 X104.193 Y88.51 E1.03406
G1 X104.3 Y87.574 E.02954
G1 X104.527 Y86.857 E.02358
G1 X104.874 Y86.191 E.02355
G1 X105.296 Y85.642 E.02171
M204 S1000
;WIPE_START
G1 F8640
G1 X105.332 Y85.594 E-.01385
G1 X105.903 Y85.075 E-.17817
G1 X106.857 Y84.527 E-.25404
G1 X107.574 Y84.3 E-.17366
G1 X108.349 Y84.212 E-.18028
;WIPE_END
G1 Z.6 F720
; printing object Shell v3.stl id:0 copy 0
G1 X122.767 Y106.875 F10800
G1 Z.2 F720
M73 P2 R12
M73 Q2 S12
G1 E.8 F2100
M204 S800
;TYPE:Perimeter
;WIDTH:0.419999
G1 F1200
G1 X122.475 Y106.458 E.01596
G1 X122.26 Y105.998 E.01592
G1 X122.129 Y105.507 E.01593
G1 X122.084 Y105 E.01596
G1 X122.129 Y104.493 E.01596
G1 X122.26 Y104.002 E.01593
G1 X122.475 Y103.542 E.01592
G1 X122.767 Y103.125 E.01596
G1 X123.125 Y102.767 E.01587
G1 X123.542 Y102.475 E.01596
G1 X124.002 Y102.26 E.01592
G1 X124.493 Y102.129 E.01593
G1 X124.986 Y102.09 E.01551
G1 X125.501 Y102.128 E.01619
G1 X125.998 Y102.26 E.01612
G1 X126.458 Y102.475 E.01592
G1 X126.875 Y102.767 E.01596
G1 X127.233 Y103.125 E.01587
G1 X127.525 Y103.542 E.01596
G1 X127.74 Y104.002 E.01592
G1 X127.871 Y104.494 E.01596
G1 X127.916 Y105 E.01593
G1 X127.871 Y105.506 E.01593
G1 X127.74 Y105.998 E.01596
G1 X127.525 Y106.458 E.01592
G1 X127.233 Y106.875 E.01596
G1 X126.875 Y107.233 E.01587
G1 X126.458 Y107.525 E.01596
G1 X125.998 Y107.74 E.01592
G1 X125.507 Y107.871 E.01593
G1 X125 Y107.916 E.01596
G1 X124.494 Y107.871 E.01593
G1 X124.002 Y107.74 E.01596
G1 X123.542 Y107.525 E.01592
G1 X123.125 Y107.233 E.01596
G1 X122.809 Y106.917 E.01401
M204 S1000
G1 X123.057 Y106.631 F10800
M204 S800
;TYPE:External perimeter
G1 F1200
G1 X123.045 Y106.619 E.00053
G1 X122.794 Y106.255 E.01386
G1 X122.61 Y105.853 E.01386
G1 X122.498 Y105.425 E.01387
G1 X122.462 Y104.984 E.01387
G1 X122.504 Y104.543 E.01389
G1 X122.621 Y104.117 E.01385
G1 X122.81 Y103.717 E.01387
G1 X123.055 Y103.368 E.01337
G1 X123.381 Y103.045 E.01439
G1 X123.745 Y102.794 E.01386
G1 X124.147 Y102.61 E.01386
G1 X124.575 Y102.498 E.01387
G1 X124.96 Y102.466 E.01211
G1 X125.457 Y102.503 E.01563
G1 X125.883 Y102.621 E.01386
G1 X126.283 Y102.81 E.01387
G1 X126.644 Y103.066 E.01388
G1 X126.955 Y103.381 E.01388
G1 X127.206 Y103.745 E.01386
G1 X127.39 Y104.147 E.01386
G1 X127.502 Y104.575 E.01387
G1 X127.538 Y105.016 E.01387
G1 X127.497 Y105.457 E.01389
G1 X127.379 Y105.883 E.01386
G1 X127.19 Y106.283 E.01387
G1 X126.934 Y106.644 E.01388
G1 X126.619 Y106.955 E.01388
G1 X126.255 Y107.206 E.01386
G1 X125.853 Y107.39 E.01386
G1 X125.425 Y107.502 E.01387
G1 X124.984 Y107.538 E.01387
G1 X124.543 Y107.497 E.01389
G1 X124.117 Y107.379 E.01386
G1 X123.717 Y107.19 E.01387
G1 X123.356 Y106.934 E.01388
G1 X123.099 Y106.673 E.01148
M204 S1000
;WIPE_START
G1 F8640
G1 X123.057 Y106.631 E-.01371
G1 X123.045 Y106.619 E-.00392
G1 X122.794 Y106.255 E-.10209
G1 X122.61 Y105.853 E-.10208
G1 X122.498 Y105.425 E-.10215
G1 X122.462 Y104.984 E-.10217
G1 X122.504 Y104.543 E-.10229
G1 X122.621 Y104.117 E-.10201
G1 X122.81 Y103.717 E-.10215
G1 X122.978 Y103.478 E-.06743
;WIPE_END
G1 Z.6 F720
G1 X107.602 Y88.753 F10800
G1 Z.2 F720
G1 E.8 F2100
M204 S800
G1 F1200
G1 X107.593 Y88.73 E.00077
G1 X107.567 Y88.485 E.00772
G1 X107.621 Y88.204 E.00897
G1 X107.681 Y88.06 E.00489
G1 X107.893 Y87.801 E.01049
G1 X108.204 Y87.621 E.01127
G1 X108.534 Y87.567 E.01048
G1 X108.777 Y87.606 E.00772
G1 X109.002 Y87.706 E.00772
G1 X109.193 Y87.861 E.00771
G1 X109.338 Y88.06 E.00772
G1 X109.426 Y88.29 E.00772
G1 X109.452 Y88.534 E.00769
G1 X109.413 Y88.777 E.00772
G1 X109.313 Y89.002 E.00772
G1 X109.159 Y89.193 E.00769
G1 X108.959 Y89.338 E.00775
G1 X108.73 Y89.426 E.00769
G1 X108.485 Y89.452 E.00772
G1 X108.242 Y89.413 E.00772
G1 X108.017 Y89.313 E.00772
G1 X107.826 Y89.159 E.00769
G1 X107.681 Y88.959 E.00775
G1 X107.624 Y88.809 E.00503
M204 S1000
;WIPE_START
G1 F8640
G1 X107.602 Y88.753 E-.01389
G1 X107.593 Y88.73 E-.0057
G1 X107.567 Y88.485 E-.05689
G1 X107.621 Y88.204 E-.06607
G1 X107.681 Y88.06 E-.03602
G1 X107.893 Y87.801 E-.07728
G1 X108.204 Y87.621 E-.08297
G1 X108.534 Y87.567 E-.07721
G1 X108.777 Y87.606 E-.05683
G1 X109.002 Y87.706 E-.05685
G1 X109.193 Y87.861 E-.0568
G1 X109.338 Y88.06 E-.05685
G1 X109.426 Y88.29 E-.05686
G1 X109.452 Y88.534 E-.05666
G1 X109.423 Y88.719 E-.04312
;WIPE_END
G1 Z.6 F720
G1 X142.398 Y88.753 F10800
G1 Z.2 F720
G1 E.8 F2100
M204 S800
G1 F1200
G1 X142.394 Y88.777 E.00076
G1 X142.294 Y89.002 E.00772
G1 X142.139 Y89.193 E.00771
G1 X141.94 Y89.338 E.00772
G1 X141.71 Y89.426 E.00772
G1 X141.466 Y89.452 E.00769
G1 X141.223 Y89.413 E.00772
G1 X141.016 Y89.326 E.00704
G1 X140.807 Y89.159 E.00839
G1 X140.662 Y88.959 E.00775
G1 X140.574 Y88.73 E.00769
G1 X140.548 Y88.485 E.00772
G1 X140.587 Y88.242 E.00772
G1 X140.687 Y88.017 E.00772
G1 X140.841 Y87.826 E.00769
G1 X141.041 Y87.681 E.00775
G1 X141.27 Y87.593 E.00769
G1 X141.515 Y87.567 E.00772
G1 X141.796 Y87.621 E.00897
G1 X142.107 Y87.801 E.01127
G1 X142.319 Y88.06 E.01049
G1 X142.412 Y88.33 E.00895
G1 X142.433 Y88.534 E.00643
G1 X142.407 Y88.693 E.00505
M204 S1000
;WIPE_START
G1 F8640
G1 X142.398 Y88.753 E-.01401
G1 X142.394 Y88.777 E-.00562
G1 X142.294 Y89.002 E-.05685
G1 X142.139 Y89.193 E-.0568
G1 X141.94 Y89.338 E-.05685
G1 X141.71 Y89.426 E-.05686
G1 X141.466 Y89.452 E-.05666
G1 X141.223 Y89.413 E-.05683
G1 X141.016 Y89.326 E-.05185
G1 X140.807 Y89.159 E-.06177
G1 X140.662 Y88.959 E-.05704
G1 X140.574 Y88.73 E-.05665
G1 X140.548 Y88.485 E-.05689
G1 X140.587 Y88.242 E-.05683
G1 X140.687 Y88.017 E-.05685
G1 X140.801 Y87.877 E-.04164
;WIPE_END
G1 Z.6 F720
G1 X141.96 Y120.676 F10800
G1 Z.2 F720
G1 E.8 F2100
M204 S800
G1 F1200
G1 X141.983 Y120.687 E.0008
G1 X142.174 Y120.841 E.00769
G1 X142.319 Y121.041 E.00775
G1 X142.407 Y121.27 E.00769
G1 X142.433 Y121.515 E.00772
G1 X142.412 Y121.67 E.0049
G1 X142.294 Y121.983 E.01049
G1 X142.107 Y122.199 E.00896
G1 X141.796 Y122.379 E.01127
G1 X141.466 Y122.433 E.01048
G1 X141.223 Y122.394 E.00772
G1 X140.998 Y122.294 E.00772
G1 X140.807 Y122.139 E.00771
G1 X140.662 Y121.94 E.00772
G1 X140.574 Y121.71 E.00772
G1 X140.548 Y121.466 E.00769
G1 X140.587 Y121.223 E.00772
G1 X140.687 Y120.998 E.00772
G1 X140.841 Y120.807 E.00769
G1 X141.041 Y120.662 E.00775
G1 X141.27 Y120.574 E.00769
G1 X141.515 Y120.548 E.00772
G1 X141.758 Y120.587 E.00772
G1 X141.905 Y120.652 E.00504
M204 S1000
;WIPE_START
G1 F8640
G1 X141.96 Y120.676 E-.01386
G1 X141.983 Y120.687 E-.00589
G1 X142.174 Y120.841 E-.05665
G1 X142.319 Y121.041 E-.05704
G1 X142.407 Y121.27 E-.05665
G1 X142.433 Y121.515 E-.05689
G1 X142.412 Y121.67 E-.03612
G1 X142.294 Y121.983 E-.07724
G1 X142.107 Y122.199 E-.06597
G1 X141.796 Y122.379 E-.08297
G1 X141.466 Y122.433 E-.07721
G1 X141.223 Y122.394 E-.05683
G1 X140.998 Y122.294 E-.05685
G1 X140.807 Y122.139 E-.0568
G1 X140.697 Y121.988 E-.04303
;WIPE_END
G1 Z.6 F720
G1 X107.698 Y121.96 F10800
G1 Z.2 F720
G1 E.8 F2100
M204 S800
G1 F1200
G1 X107.681 Y121.94 E.00082
G1 X107.588 Y121.67 E.00895
G1 X107.567 Y121.466 E.00643
G1 X107.606 Y121.223 E.00772
G1 X107.706 Y120.998 E.00772
G1 X107.861 Y120.807 E.00771
G1 X108.06 Y120.662 E.00772
G1 X108.29 Y120.574 E.00772
G1 X108.534 Y120.548 E.00769
G1 X108.777 Y120.587 E.00772
G1 X109.002 Y120.687 E.00772
G1 X109.193 Y120.841 E.00769
G1 X109.338 Y121.041 E.00775
G1 X109.426 Y121.27 E.00769
G1 X109.452 Y121.515 E.00772
G1 X109.413 Y121.758 E.00772
G1 X109.313 Y121.983 E.00772
G1 X109.159 Y122.174 E.00769
G1 X108.959 Y122.319 E.00775
G1 X108.73 Y122.407 E.00769
G1 X108.485 Y122.433 E.00772
G1 X108.204 Y122.379 E.00897
G1 X107.893 Y122.199 E.01127
G1 X107.736 Y122.007 E.00778
M204 S1000
;WIPE_START
G1 F8640
G1 X107.698 Y121.96 E-.01396
G1 X107.681 Y121.94 E-.00606
G1 X107.588 Y121.67 E-.06594
G1 X107.567 Y121.466 E-.04735
G1 X107.606 Y121.223 E-.05683
G1 X107.706 Y120.998 E-.05685
G1 X107.861 Y120.807 E-.0568
G1 X108.06 Y120.662 E-.05685
G1 X108.29 Y120.574 E-.05686
G1 X108.534 Y120.548 E-.05666
G1 X108.777 Y120.587 E-.05683
G1 X109.002 Y120.687 E-.05685
G1 X109.193 Y120.841 E-.05665
G1 X109.338 Y121.041 E-.05704
G1 X109.426 Y121.27 E-.05665
G1 X109.445 Y121.45 E-.04182
;WIPE_END
G1 Z.6 F720
G1 X107.196 Y88.808 F10800
G1 Z.2 F720
G1 E.8 F2100
M204 S800
;TYPE:Perimeter
;WIDTH:0.47442
G1 F1200
G1 X107.203 Y88.279 E.01898
;WIDTH:0.441918
G1 X107.358 Y87.845 E.01529
G1 X107.657 Y87.493 E.01532
G1 X108.056 Y87.263 E.01528
G1 X108.46 Y87.184 E.01366
;WIDTH:0.470556
G1 X108.782 Y87.194 E.01146
M204 S1000
;WIPE_START
G1 F8640
G1 X108.46 Y87.184 E-.07439
G1 X108.056 Y87.263 E-.09505
G1 X107.657 Y87.493 E-.10634
G1 X107.358 Y87.845 E-.10664
G1 X107.203 Y88.279 E-.10641
G1 X107.196 Y88.808 E-.12216
;WIPE_END
G1 E-.18901 F2100
G1 Z.6 F720
G1 X108.808 Y122.804 F10800
G1 Z.2 F720
G1 E.8 F2100
M204 S800
;WIDTH:0.47442
G1 F1200
G1 X108.279 Y122.797 E.01898
;WIDTH:0.44192
G1 X107.845 Y122.642 E.01529
G1 X107.493 Y122.343 E.01532
G1 X107.263 Y121.944 E.01528
M73 Q3 S12
G1 X107.184 Y121.54 E.01366
;WIDTH:0.470556
G1 X107.194 Y121.218 E.01146
M204 S1000
;WIPE_START
G1 F8640
G1 X107.184 Y121.54 E-.07439
G1 X107.263 Y121.944 E-.09505
G1 X107.493 Y122.343 E-.10634
G1 X107.845 Y122.642 E-.10664
G1 X108.279 Y122.797 E-.10641
G1 X108.808 Y122.804 E-.12216
;WIPE_END
G1 E-.18901 F2100
G1 Z.6 F720
G1 X142.806 Y121.218 F10800
G1 Z.2 F720
M73 P3 R12
G1 E.8 F2100
M204 S800
;WIDTH:0.470558
G1 F1200
G1 X142.797 Y121.721 E.01789
;WIDTH:0.441918
G1 X142.642 Y122.155 E.01529
G1 X142.343 Y122.507 E.01532
G1 X141.944 Y122.737 E.01528
G1 X141.54 Y122.816 E.01366
;WIDTH:0.470558
G1 X141.218 Y122.806 E.01146
M204 S1000
;WIPE_START
G1 F8640
G1 X141.54 Y122.816 E-.07439
G1 X141.944 Y122.737 E-.09505
G1 X142.343 Y122.507 E-.10634
G1 X142.642 Y122.155 E-.10664
G1 X142.797 Y121.721 E-.10641
G1 X142.806 Y121.218 E-.11616
;WIPE_END
G1 E-.19501 F2100
G1 Z.6 F720
G1 X141.192 Y87.196 F10800
G1 Z.2 F720
G1 E.8 F2100
M204 S800
;WIDTH:0.47442
G1 F1200
G1 X141.721 Y87.203 E.01898
;WIDTH:0.441916
G1 X142.155 Y87.358 E.01529
G1 X142.507 Y87.657 E.01532
G1 X142.737 Y88.056 E.01528
G1 X142.816 Y88.46 E.01366
;WIDTH:0.47442
G1 X142.804 Y88.808 E.01249
M204 S1000
;WIPE_START
G1 F8640
G1 X142.816 Y88.46 E-.0804
G1 X142.737 Y88.056 E-.09505
G1 X142.507 Y87.657 E-.10634
G1 X142.155 Y87.358 E-.10664
G1 X141.721 Y87.203 E-.10641
G1 X141.192 Y87.196 E-.12216
;WIPE_END
G1 E-.183 F2100
G1 Z.6 F720
G1 Z.2
G1 E.8 F2100
M204 S800
G1 F1200
G1 X141.071 Y87.241 E.00463
;WIDTH:0.456326
G1 X140.612 Y87.527 E.01859
;WIDTH:0.419999
G1 X140.387 Y87.788 E.0108
G1 X140.238 Y88.098 E.01078
G1 X140.174 Y88.436 E.01079
G1 X140.2 Y88.779 E.01079
G1 X140.314 Y89.104 E.0108
G1 X140.508 Y89.388 E.01078
G1 X140.768 Y89.613 E.01078
G1 X141.078 Y89.762 E.01078
G1 X141.417 Y89.826 E.01082
G1 X141.76 Y89.8 E.01079
G1 X142.084 Y89.686 E.01077
G1 X142.369 Y89.492 E.01081
G1 X142.593 Y89.232 E.01076
;WIDTH:0.44721
G1 X142.699 Y89.02 E.00797
;WIDTH:0.47442
G1 X142.804 Y88.808 E.00849
G1 X142.817 Y89.06 E.00905
;WIDTH:0.44721
G1 X142.831 Y89.312 E.00848
;WIDTH:0.419999
G1 X142.831 Y120.688 E.98377
;WIDTH:0.445279
G1 X142.818 Y120.953 E.00888
;WIDTH:0.470558
G1 X142.806 Y121.218 E.00943
G1 X142.757 Y121.073 E.00544
;WIDTH:0.450546
G1 X142.473 Y120.612 E.01835
;WIDTH:0.419999
G1 X142.212 Y120.387 E.0108
G1 X141.902 Y120.238 E.01078
G1 X141.564 Y120.174 E.01079
G1 X141.221 Y120.2 E.01079
G1 X140.896 Y120.314 E.0108
G1 X140.612 Y120.508 E.01078
G1 X140.387 Y120.768 E.01078
G1 X140.238 Y121.078 E.01078
G1 X140.174 Y121.417 E.01082
G1 X140.2 Y121.76 E.01079
G1 X140.314 Y122.084 E.01077
G1 X140.508 Y122.369 E.01081
G1 X140.768 Y122.593 E.01076
;WIDTH:0.445279
G1 X140.993 Y122.699 E.00832
;WIDTH:0.470558
G1 X141.218 Y122.806 E.00886
G1 X140.953 Y122.818 E.00943
;WIDTH:0.445279
G1 X140.688 Y122.831 E.00888
;WIDTH:0.419999
G1 X109.312 Y122.831 E.98377
;WIDTH:0.44721
G1 X109.06 Y122.817 E.00848
;WIDTH:0.47442
G1 X108.808 Y122.804 E.00905
G1 X108.929 Y122.759 E.00463
;WIDTH:0.456326
G1 X109.388 Y122.473 E.01859
;WIDTH:0.419999
G1 X109.613 Y122.212 E.0108
G1 X109.762 Y121.902 E.01078
G1 X109.826 Y121.564 E.01079
G1 X109.8 Y121.221 E.01079
G1 X109.686 Y120.896 E.0108
G1 X109.492 Y120.612 E.01078
G1 X109.232 Y120.387 E.01078
G1 X108.922 Y120.238 E.01078
G1 X108.583 Y120.174 E.01082
G1 X108.24 Y120.2 E.01079
G1 X107.916 Y120.314 E.01077
G1 X107.631 Y120.508 E.01081
G1 X107.407 Y120.768 E.01076
;WIDTH:0.445278
G1 X107.301 Y120.993 E.00832
;WIDTH:0.470556
G1 X107.194 Y121.218 E.00886
G1 X107.182 Y120.953 E.00943
;WIDTH:0.445278
G1 X107.169 Y120.688 E.00888
;WIDTH:0.419999
G1 X107.169 Y89.312 E.98377
;WIDTH:0.44721
G1 X107.183 Y89.06 E.00848
M73 Q4 S12
;WIDTH:0.47442
G1 X107.196 Y88.808 E.00905
G1 X107.241 Y88.929 E.00463
;WIDTH:0.456326
G1 X107.527 Y89.388 E.01859
;WIDTH:0.419999
G1 X107.788 Y89.613 E.0108
G1 X108.098 Y89.762 E.01078
G1 X108.436 Y89.826 E.01079
G1 X108.779 Y89.8 E.01079
G1 X109.104 Y89.686 E.0108
G1 X109.388 Y89.492 E.01078
G1 X109.613 Y89.232 E.01078
G1 X109.762 Y88.922 E.01078
G1 X109.826 Y88.583 E.01082
G1 X109.8 Y88.24 E.01079
G1 X109.686 Y87.916 E.01077
M73 P4 R12
G1 X109.492 Y87.631 E.01081
G1 X109.232 Y87.407 E.01076
;WIDTH:0.445278
G1 X109.007 Y87.301 E.00832
;WIDTH:0.470556
G1 X108.782 Y87.194 E.00886
G1 X109.047 Y87.182 E.00943
;WIDTH:0.445278
G1 X109.312 Y87.169 E.00888
;WIDTH:0.419999
G1 X140.688 Y87.169 E.98377
;WIDTH:0.44721
G1 X140.94 Y87.183 E.00848
;WIDTH:0.47442
G1 X141.132 Y87.193 E.0069
M204 S1000
